X:695
T:Whelan's
R:jig
Z:Transcribed by Dave Marshall
M:6/8
K:Edor
|:~E3 BAF | FEB AFD | ~E3 BAF | dAF FED |
~E3 BAF | FEB AFA | ~B3 BAB |1 dAF FED :|2 dAF FGA
|:~B3 ede | fed e2d | ~B3 ~g3 | fdB AFA |
~B3 ede | fed e2f | gbg faf |1 edB AFA :|2 edB AFD |
